anadea-new/source/img/icon-tel.svg

<svg width="20" height="16" viewBox="0 0 20 16" fill="none" xmlns="http://www.w3.org/2000/svg">
<path fill-rule="evenodd" clip-rule="evenodd" d="M1.0892 6.76449L18.4155 0.0618499C19.0749 -0.193255 19.7565 0.379714 19.6116 1.06742L16.6535 15.1072C16.5147 15.766 15.7363 16.0619 15.1897 15.6636L10.7233 12.4091L8.4469 14.7164C8.04739 15.1214 7.35724 14.9575 7.1856 14.4168L5.54248 9.24104L1.13968 7.95039C0.561993 7.78107 0.527994 6.98161 1.0892 6.76449ZM8.19525 10.2425L16.2432 3.17762C16.4359 3.00853 16.2121 2.70986 15.9936 2.84452L6.48975 8.69589C6.32243 8.79889 6.2463 9.00117 6.30469 9.18787L7.57952 13.2658C7.60636 13.3514 7.73206 13.3396 7.74218 13.2505L8.05204 10.5161C8.06397 10.4105 8.11503 10.313 8.19525 10.2425Z" fill="#82919A"/>
</svg>

<svg width="20" height="16" fill="none" xmlns="http://www.w3.org/2000/svg"><path fill-rule="evenodd" clip-rule="evenodd" d="M1.09 6.764L18.415.062c.659-.255 1.34.318 1.196 1.005l-2.958 14.04a.934.934 0 01-1.464.557l-4.467-3.255-2.276 2.307a.758.758 0 01-1.261-.3L5.542 9.242 1.14 7.951a.626.626 0 01-.05-1.187zm7.105 3.478l8.048-7.064c.193-.17-.03-.468-.25-.333L6.49 8.695a.428.428 0 00-.185.493l1.275 4.078c.026.085.152.074.162-.015l.31-2.735a.428.428 0 01.143-.274z" fill="#82919A"/></svg>
